lib/svgs/sharp.svg

<svg xmlns="http://www.w3.org/2000/svg" viewBox="0 0 20 20">
    <path fill="#000" fill-rule="evenodd" d="M17.4,6.35387712 L13.755,6.35387712 L14.035,2.64587712 C14.06,2.31587712 13.812,2.02787712 13.481,2.00287712 C13.154,1.96987712 12.863,2.22487712 12.838,2.55587712 L12.552,6.35387712 L7.999,6.35387712 L8.279,2.64587712 C8.304,2.31587712 8.057,2.02787712 7.726,2.00287712 C7.399,1.96987712 7.107,2.22487712 7.083,2.55587712 L6.796,6.35387712 L3.216,6.35387712 C2.884,6.35387712 2.616,6.62287712 2.616,6.95387712 C2.616,7.28587712 2.884,7.55387712 3.216,7.55387712 L6.706,7.55387712 L6.337,12.4478771 L2.601,12.4478771 C2.269,12.4478771 2,12.7168771 2,13.0478771 C2,13.3788771 2.269,13.6478771 2.601,13.6478771 L6.246,13.6478771 L5.966,17.3568771 C5.941,17.6868771 6.189,17.9748771 6.519,17.9998771 C6.535,18.0008771 6.55,18.0008771 6.565,18.0008771 C6.876,18.0008771 7.139,17.7618771 7.163,17.4468771 L7.449,13.6478771 L12.001,13.6478771 L11.722,17.3568771 C11.697,17.6868771 11.944,17.9748771 12.275,17.9998771 C12.29,18.0008771 12.305,18.0008771 12.32,18.0008771 C12.631,18.0008771 12.894,17.7618771 12.918,17.4468771 L13.205,13.6478771 L16.785,13.6478771 C17.116,13.6478771 17.385,13.3788771 17.385,13.0478771 C17.385,12.7168771 17.116,12.4478771 16.785,12.4478771 L13.295,12.4478771 L13.664,7.55387712 L17.4,7.55387712 C17.732,7.55387712 18,7.28587712 18,6.95387712 C18,6.62287712 17.732,6.35387712 17.4,6.35387712 L17.4,6.35387712 Z M12.092,12.4478771 L7.54,12.4478771 L7.909,7.55387712 L12.461,7.55387712 L12.092,12.4478771 L12.092,12.4478771 Z"/>
</svg>

<svg xmlns="http://www.w3.org/2000/svg" viewBox="0 0 20 20">
    <path fill="#000" fill-rule="evenodd" d="M17.4 6.354h-3.645l.28-3.708a.6.6 0 0 0-.554-.643.596.596 0 0 0-.643.553l-.286 3.798H7.999l.28-3.708a.6.6 0 0 0-.553-.643.595.595 0 0 0-.643.553l-.287 3.798h-3.58a.6.6 0 1 0 0 1.2h3.49l-.369 4.894H2.601a.6.6 0 1 0 0 1.2h3.645l-.28 3.709a.6.6 0 0 0 1.197.09l.286-3.8h4.552l-.279 3.71a.6.6 0 1 0 1.196.09l.287-3.8h3.58a.6.6 0 0 0 0-1.2h-3.49l.369-4.893H17.4a.6.6 0 1 0 0-1.2m-5.308 6.094H7.54l.369-4.894h4.552l-.369 4.894"/>
</svg>
